Apricity Icons/16/panel/mumble-indicator.svg

<svg xmlns="http://www.w3.org/2000/svg" width="16" height="16" version="1">
 <defs>
  <style id="current-color-scheme" type="text/css">
   .ColorScheme-Text { color:#dfdfdf; } .ColorScheme-Highlight { color:#4285f4; }
  </style>
 </defs>
 <path style="fill:currentColor" class="ColorScheme-Text" d="M 8,1.0003 C 4.134,1.0003 1,4.1343 1,8.0003 V 9.361 C 0.3572,10.09 0.0017,10.778 0,11.75 0,13.959 1.7909,15 4,15 H 5 V 8.0003 H 4 C 3.6624,8.0023 3.3264,8.0473 3,8.1333 V 8.0003 C 3,5.2306 5.23,3.0006 8,3.0006 10.77,3.0006 13,5.2306 13,8.0003 V 8.1313 C 12.674,8.0453 12.338,8.0013 12,8.0003 H 11 V 13.011 C 10.608,12.987 10.193,13.085 10,12.989 V 11.999 H 8 C 7.446,11.999 7,12.534 7,13.199 V 13.8 C 7,14.465 7.446,14.999 8,14.999 H 11 11.754 12 C 14.209,14.999 16,13.959 16,11.75 15.998,10.778 15.643,10.089 15,9.36 V 7.9993 C 15,4.1337 11.866,0.9997 8,0.9997 Z"/>
</svg>

<svg xmlns="http://www.w3.org/2000/svg" width="16" height="16" version="1"><defs><style id="current-color-scheme" type="text/css"></style></defs><path d="M8 1a7 7 0 0 0-7 7v1.361c-.643.729-.998 1.417-1 2.389C0 13.959 1.79 15 4 15h1V8H4a4.019 4.019 0 0 0-1 .133V8c0-2.77 2.23-5 5-5s5 2.23 5 5v.131a3.966 3.966 0 0 0-1-.13h-1v5.01c-.392-.024-.807.074-1-.022v-.99H8c-.554 0-1 .535-1 1.2v.601c0 .665.446 1.199 1 1.199h4c2.209 0 4-1.04 4-3.249-.002-.972-.357-1.661-1-2.39V8a7 7 0 0 0-7-7z" fill="currentColor" color="#dfdfdf"/></svg>
